dist/img/social-youtube.svg

<svg width="22" height="20" viewBox="0 0 22 20" fill="none" xmlns="http://www.w3.org/2000/svg">
<path fill-rule="evenodd" clip-rule="evenodd" d="M6.84499 2.77524C9.43699 2.40824 12.563 2.40824 15.155 2.77524C17.51 3.10924 19.335 4.76124 19.683 6.54124C20.106 8.69624 20.106 11.3042 19.683 13.4592C19.334 15.2392 17.51 16.8912 15.155 17.2252C12.563 17.5922 9.43599 17.5922 6.84499 17.2252C4.48999 16.8912 2.66599 15.2392 2.31699 13.4592C1.89399 11.3042 1.89399 8.69624 2.31699 6.54124C2.66599 4.76124 4.48999 3.10924 6.84499 2.77524ZM15.435 0.795238C12.658 0.402238 9.34199 0.402238 6.56499 0.795238C3.54999 1.22224 0.899994 3.37324 0.354994 6.15724C-0.118006 8.56624 -0.118006 11.4342 0.354994 13.8432C0.899994 16.6272 3.54999 18.7782 6.56499 19.2052C9.34199 19.5982 12.658 19.5982 15.435 19.2052C18.45 18.7782 21.1 16.6272 21.645 13.8432C22.118 11.4342 22.118 8.56624 21.645 6.15724C21.1 3.37324 18.45 1.22224 15.435 0.795238ZM9.55499 5.16824C9.40439 5.06776 9.22934 5.01005 9.04851 5.00127C8.86768 4.99248 8.68786 5.03295 8.52823 5.11836C8.3686 5.20377 8.23515 5.33092 8.14212 5.48623C8.04909 5.64154 7.99997 5.8192 7.99999 6.00024V14.0002C7.99997 14.1813 8.04909 14.3589 8.14212 14.5142C8.23515 14.6696 8.3686 14.7967 8.52823 14.8821C8.68786 14.9675 8.86768 15.008 9.04851 14.9992C9.22934 14.9904 9.40439 14.9327 9.55499 14.8322L15.555 10.8322C15.692 10.7409 15.8042 10.6172 15.8819 10.4721C15.9596 10.3269 16.0002 10.1649 16.0002 10.0002C16.0002 9.83563 15.9596 9.67356 15.8819 9.52842C15.8042 9.38328 15.692 9.25956 15.555 9.16824L9.55499 5.16824ZM13.197 10.0002L9.99999 12.1322V7.86924L13.197 10.0002Z" fill="#6D6F7F"/>
</svg>

<svg width="22" height="20" viewBox="0 0 22 20" fill="none" xmlns="http://www.w3.org/2000/svg"><path fill-rule="evenodd" clip-rule="evenodd" d="M6.845 2.775c2.592-.367 5.718-.367 8.31 0 2.355.334 4.18 1.986 4.528 3.766.423 2.155.423 4.763 0 6.918-.349 1.78-2.173 3.432-4.528 3.766-2.592.367-5.719.367-8.31 0-2.355-.334-4.179-1.986-4.528-3.766-.423-2.155-.423-4.763 0-6.918.349-1.78 2.173-3.432 4.528-3.766zm8.59-1.98c-2.777-.393-6.093-.393-8.87 0C3.55 1.222.9 3.373.355 6.157c-.473 2.41-.473 5.277 0 7.686.545 2.784 3.195 4.935 6.21 5.362 2.777.393 6.093.393 8.87 0 3.015-.427 5.665-2.578 6.21-5.362.473-2.409.473-5.277 0-7.686-.545-2.784-3.195-4.935-6.21-5.362zm-5.88 4.373A1 1 0 008 6v8a1 1 0 001.555.832l6-4a1 1 0 000-1.664l-6-4zM13.197 10L10 12.132V7.87L13.197 10z" fill="#6D6F7F"/></svg>
